X: 9
T: Queramus cum pastoribus / Ubi pascas
N: Derived from Mou2087-Queramus_cum_pastoribus.krn
C: Mouton
%%abc-version 2.0
%%abcx-abcm2ps-target-version 5.9.1 (29 Sep 2008)
%%abc-creator hum2abc beta
%%abcx-conversion-date 2019/02/17 07:22:04
%%abc-edited-by Jesse Rodin
%%abc-edited-by Will Watson 20/07/2011
%%abcx-initial-encoding-date 2011/07/20/
%%humdrum-veritas 614067606
%%humdrum-veritas-data 232759072
%%linebreak <none>
%%barnumbers 0
L: 1/4
M: 2/1
Q: 1/2=120
%%staves [1 2 3 4]
V: 1 clef=treble
V: 2 clef=treble-8
V: 3 clef=treble-8
V: 4 clef=bass
K: F
[V:1] z8 | 
[V:2] f8 | 
[V:3] z8 | 
[V:4] z8 | 
[V:1] z8 | 
[V:2] f4c4 | 
[V:3] z8 | 
[V:4] z8 | 
[V:1] c8 | 
[V:2] f6f2 | 
[V:3] z8 | 
[V:4] z8 | 
[V:1] c4F4 | 
[V:2] e4d4 | 
[V:3] z8 | 
[V:4] z8 | 
[V:1] c6c2 | 
[V:2] c4z2c2 | 
[V:3] z8 | 
[V:4] z8 | 
[V:1] B4A4 | 
[V:2] d2e2f4 | 
[V:3] z8 | 
[V:4] z8 | 
[V:1] G4z2G2 | 
[V:2] e4c4- | 
[V:3] z8 | 
[V:4] z8 | 
[V:1] A3Bc4 | 
[V:2] c4z2c2 | 
[V:3] z8 | 
[V:4] F,8 | 
[V:1] A4G4 | 
[V:2] d4e4 | 
[V:3] z8 | 
[V:4] F,4C,4 | 
[V:1] z2A4GF | 
[V:2] f8 | 
[V:3] c8 | 
[V:4] F,6F,2 | 
[V:1] G4F2f2- | 
[V:2] z4z2a2- | 
[V:3] c4F4 | 
[V:4] E,4D,4 | 
[V:1] f2ede4 | 
[V:2] a2gfg4- | 
[V:3] c6c2 | 
[V:4] C,4z2C,2 | 
[V:1] d4c4 | 
[V:2] g2f2f4 | 
[V:3] B4A4 | 
[V:4] D,2E,2F,4 | 
[V:1] z4c4- | 
[V:2] g4e4 | 
[V:3] G4z2G2 | 
[V:4] E,4C,4 | 
[V:1] c2BAG2_e2- | 
[V:2] z2g2g4 | 
[V:3] A2B2c4 | 
[V:4] z8 | 
[V:1] edc4B2 | 
[V:2] c4d4 | 
[V:3] A4G4 | 
[V:4] z8 | 
[V:1] A2GFG2A2- | 
[V:2] e3de2f2- | 
[V:3] z8 | 
[V:4] C8 | 
[V:1] A2G2A4 | 
[V:2] f2e2d2c2 | 
[V:3] z4f4- | 
[V:4] C4F,4 | 
[V:1] z4d4 | 
[V:2] d4z2d2 | 
[V:3] f4f4 | 
[V:4] B,6B,2 | 
[V:1] c2A2B4 | 
[V:2] e2f2d4- | 
[V:3] c4z4 | 
[V:4] A,4G,4 | 
[V:1] A2c4BA | 
[V:2] d2c2A2B2 | 
[V:3] f6f2 | 
[V:4] F,4z4 | 
[V:1] G4z2F2 | 
[V:2] c4A4 | 
[V:3] e4d4 | 
[V:4] z2C,2D,4 | 
[V:1] G2A4B2 | 
[V:2] z2c2d4 | 
[V:3] c4z2F2 | 
[V:4] E,2F,2D,4 | 
[V:1] c2A3GF2- | 
[V:2] e2f2d4 | 
[V:3] G2A4B2 | 
[V:4] C,2F,4B,,2 | 
[V:1] F2E2F3G | 
[V:2] c8 | 
[V:3] G4F4- | 
[V:4] C,4z4 | 
[V:1] ABA4GF | 
[V:2] z4c4 | 
[V:3] F4z4 | 
[V:4] F,4F,4 | 
[V:1] E8 | 
[V:2] c4z4 | 
[V:3] z4z2c2 | 
[V:4] z2C,2C,3D, | 
[V:1] z4z2F2 | 
[V:2] z8 | 
[V:3] c2c2d4 | 
[V:4] E,2F,2D,4- | 
[V:1] F3GA2B2 | 
[V:2] z2d2d2d2 | 
[V:3] z8 | 
[V:4] D,4z4 | 
[V:1] G8 | 
[V:2] e8 | 
[V:3] z4z2c2 | 
[V:4] z2C,2C,3D, | 
[V:1] z4z2F2 | 
[V:2] z8 | 
[V:3] c2c2d4 | 
[V:4] E,2F,2D,4- | 
[V:1] F3GA2B2 | 
[V:2] z2d2d2d2 | 
[V:3] z8 | 
[V:4] D,4z4 | 
[V:1] !fermata!G8- | 
[V:2] !fermata!e8- | 
[V:3] z4c4 | 
[V:4] C,4!fermata!C,4- | 
[V:1] G8 | 
[V:2] e8 | 
[V:3] !fermata!c8 | 
[V:4] C,8 | 
[V:1] z8 | 
[V:2] z8 | 
[V:3] c4c2d2 | 
[V:4] F,4E,2D,2 | 
[V:1] z8 | 
[V:2] z8 | 
[V:3] c3cc2B2 | 
[V:4] F,3E,F,2G,2 | 
[V:1] z4c4 | 
[V:2] z4f4 | 
[V:3] A4z4 | 
[V:4] D,4z4 | 
[V:1] c2d2c3c | 
[V:2] e2d2f3e | 
[V:3] z8 | 
[V:4] z8 | 
[V:1] c2B2A4- | 
[V:2] f2g2d4- | 
[V:3] z8 | 
[V:4] z8 | 
[V:1] A4d4 | 
[V:2] d4z4 | 
[V:3] f6f2 | 
[V:4] z4B,4- | 
[V:1] B4B4 | 
[V:2] d6B2 | 
[V:3] f4d4 | 
[V:4] B,2B,2B,4 | 
[V:1] A8 | 
[V:2] c4d4 | 
[V:3] z4f4- | 
[V:4] F,4z4 | 
[V:1] d4B4 | 
[V:2] z4d4- | 
[V:3] f2f2f4 | 
[V:4] B,6B,2 | 
[V:1] B4A4- | 
[V:2] d2B2c4 | 
[V:3] d4f4- | 
[V:4] B,4F,4 | 
[V:1] A4z4 | 
[V:2] d4g3f | 
[V:3] f4e4 | 
[V:4] z4C4- | 
[V:1] G6F2 | 
[V:2] e2d2e2c2 | 
[V:3] c2d4c2- | 
[V:4] C2B,2C2A,2 | 
[V:1] G4A4 | 
[V:2] d2e2f4- | 
[V:3] c2B2c4- | 
[V:4] G,4F,4- | 
[V:1] z4c4 | 
[V:2] f8- | 
[V:3] c4z4 | 
[V:4] F,4z4 | 
[V:1] c2d2c3c | 
[V:2] f4z4 | 
[V:3] z4f4 | 
[V:4] z8 | 
[V:1] c2B2A4 | 
[V:2] z8 | 
[V:3] f2g2f3f | 
[V:4] z8 | 
[V:1] c2c2d2f2 | 
[V:2] z8 | 
[V:3] f2e2d4 | 
[V:4] z8 | 
[V:1] e2dcBAd2- | 
[V:2] z8 | 
[V:3] c2c2d2f2- | 
[V:4] z8 | 
[V:1] d2c4B2 | 
[V:2] z8 | 
[V:3] fedcd3c/B/ | 
[V:4] F,4F,2G,2 | 
[V:1] c3BA2G2 | 
[V:2] z8 | 
[V:3] A3FABc2- | 
[V:4] F,3F,F,2E,2 | 
[V:1] F4E4- | 
[V:2] z4g4 | 
[V:3] c2=B2c4- | 
[V:4] D,4z4 | 
[V:1] E4z4 | 
[V:2] g2a2g3g | 
[V:3] c4z4 | 
[V:4] z4C4 | 
[V:1] z8 | 
[V:2] g2f2e4 | 
[V:3] z8 | 
[V:4] C2D2C3C | 
[V:1] z8 | 
[V:2] f2f2g2b2 | 
[V:3] z8 | 
[V:4] B,2A,2G,4 | 
[V:1] z8 | 
[V:2] a2gfedg2- | 
[V:3] z8 | 
[V:4] F,2F,2G,2B,2- | 
[V:1] z8 | 
[V:2] g2f4e2 | 
[V:3] z8 | 
[V:4] B,2A,2G,4 | 
[V:1] z4c4- | 
[V:2] f4z4 | 
[V:3] z4A4 | 
[V:4] F,4z2F,2 | 
[V:1] c4d4 | 
[V:2] f8 | 
[V:3] A6GF | 
[V:4] F,4D,4 | 
[V:1] e4c4 | 
[V:2] g4a4- | 
[V:3] c4F3G | 
[V:4] C,4z2F,2 | 
[V:1] f6ed | 
[V:2] a4f4 | 
[V:3] ABc4=B2 | 
[V:4] F,4D,4 | 
[V:1] e4d3c | 
[V:2] g6d2 | 
[V:3] c2G2B3c | 
[V:4] C,4G,4- | 
[V:1] B2A3GG2- | 
[V:2] g2f2g2e2 | 
[V:3] d4B2c2 | 
[V:4] G,2D,2E,2C,2 | 
[V:1] G2^F2G4- | 
[V:2] d3cdcBA | 
[V:3] A4G4- | 
[V:4] D,4G,4 | 
[V:1] G4z4 | 
[V:2] B2c2G4 | 
[V:3] G4z2c2 | 
[V:4] z2C,2C,3D, | 
[V:1] z2c2f4 | 
[V:2] z4z2d2 | 
[V:3] cBAGA2B2 | 
[V:4] E,2F,2D,4 | 
[V:1] e4c4 | 
[V:2] g4e4 | 
[V:3] c4z2c2 | 
[V:4] z2C,2C,3D, | 
[V:1] z2c2f4 | 
[V:2] c4z2d2 | 
[V:3] cBAGA2B2 | 
[V:4] E,2F,2D,4 | 
[V:1] e4c2e2- | 
[V:2] g4e2c2 | 
[V:3] c4G4 | 
[V:4] z2C,2C,4 | 
[V:1] edc4=B2 | 
[V:2] e2f2g4- | 
[V:3] B2c2d4 | 
[V:4] G,2A,2G,4 | 
[V:1] c8 ||  
[V:2] g8 ||  
[V:3] c8 ||  
[V:4] C,8 ||  
[V:1] [M:2/1]c6A2 | 
[V:2] [M:2/1]z8 | 
[V:3] [M:2/1]z8 | 
[V:4] [M:2/1]z8 | 
[V:1] B4A2B2 | 
[V:2] z8 | 
[V:3] z8 | 
[V:4] z8 | 
[V:1] c4d4 | 
[V:2] f6d2 | 
[V:3] z8 | 
[V:4] z8 | 
[V:1] c8 | 
[V:2] f4e2f2 | 
[V:3] z8 | 
[V:4] z8 | 
[V:1] z2e4f2- | 
[V:2] g4a4 | 
[V:3] c6A2 | 
[V:4] z8 | 
[V:1] f2edc2d2 | 
[V:2] f8 | 
[V:3] B4A2B2 | 
[V:4] z8 | 
[V:1] A4z4 | 
[V:2] z4a4- | 
[V:3] c4d4 | 
[V:4] F,6D,2 | 
[V:1] c6A2 | 
[V:2] a2a2g2fe | 
[V:3] c8 | 
[V:4] F,4E,2F,2 | 
[V:1] B4A3B | 
[V:2] dcd2c4 | 
[V:3] z8 | 
[V:4] G,4A,4 | 
[V:1] c4d4 | 
[V:2] f6d2 | 
[V:3] z8 | 
[V:4] F,4z4 | 
[V:1] c8 | 
[V:2] f4e2f2 | 
[V:3] z8 | 
[V:4] z8 | 
[V:1] z2e4f2- | 
[V:2] g4a4 | 
[V:3] c6A2 | 
[V:4] z8 | 
[V:1] f2edc2d2 | 
[V:2] f8 | 
[V:3] B4A2B2 | 
[V:4] z8 | 
[V:1] A4z4 | 
[V:2] z4a4- | 
[V:3] c4d4 | 
[V:4] F,6D,2 | 
[V:1] z8 | 
[V:2] a2a2g2fe | 
[V:3] c6A2 | 
[V:4] F,4E,2F,2 | 
[V:1] z4A4- | 
[V:2] dcd2c4 | 
[V:3] B3AF4 | 
[V:4] G,4A,4 | 
[V:1] A2A2A4 | 
[V:2] f6f2 | 
[V:3] c6c2 | 
[V:4] F,8 | 
[V:1] G4A4- | 
[V:2] e4c4 | 
[V:3] c4A4 | 
[V:4] z4F,4- | 
[V:1] A2A2A4 | 
[V:2] f6f2 | 
[V:3] c6c2 | 
[V:4] F,2F,2F,4 | 
[V:1] G3ABcd2- | 
[V:2] e4d4 | 
[V:3] c4B3c | 
[V:4] C,4G,3A, | 
[V:1] d2c2B2AG | 
[V:2] z2c2d2e2 | 
[V:3] def4e2 | 
[V:4] B,2A,2G,4 | 
[V:1] A8 | 
[V:2] f8 | 
[V:3] d2c2d4- | 
[V:4] F,4z4 | 
[V:1] B4G4 | 
[V:2] z2f2e3d | 
[V:3] d4c4 | 
[V:4] B,,4C,3D, | 
[V:1] z2F2F3G | 
[V:2] c2c2d4 | 
[V:3] z2A2A3B | 
[V:4] E,2F,2D,4 | 
[V:1] A2B2G2c2- | 
[V:2] z2f2e3f | 
[V:3] c2d2c4- | 
[V:4] z2B,,2C,3D, | 
[V:1] cBA3GF2- | 
[V:2] g2c4B2 | 
[V:3] c4F4 | 
[V:4] E,2F,2D,4 | 
[V:1] F2E2F4- | 
[V:2] c6BA | 
[V:3] G4F3G | 
[V:4] C,4F,4 | 
[V:1] F8- | 
[V:2] c2d2A4 | 
[V:3] A2B2c3B | 
[V:4] z4F,3G, | 
[V:1] F4z4 | 
[V:2] z4z2d2 | 
[V:3] c2d3cBA | 
[V:4] A,2B,3A,G,F, | 
[V:1] z4z2A2 | 
[V:2] d2e2f4 | 
[V:3] B4A4 | 
[V:4] G,4D,4 | 
[V:1] A2B2c4 | 
[V:2] f2g2a4 | 
[V:3] z4z2A2 | 
[V:4] z8 | 
[V:1] c2d2e4 | 
[V:2] f4z2g2- | 
[V:3] A2B2c3d | 
[V:4] z8 | 
[V:1] c6BA | 
[V:2] g2a3gfe | 
[V:3] e2f3edc | 
[V:4] z8 | 
[V:1] B2c2A2B2- | 
[V:2] f2g2e2f2 | 
[V:3] d2e2c2d2 | 
[V:4] z8 | 
[V:1] B2A4G2 | 
[V:2] e2f4ed | 
[V:3] c2A2B4 | 
[V:4] z2D,2D,2E,2 | 
[V:1] A4z4 | 
[V:2] c4z4 | 
[V:3] z2A2A2B2 | 
[V:4] F,4F,2G,2 | 
[V:1] z8 | 
[V:2] z8 | 
[V:3] c4c2d2 | 
[V:4] A,4F,2B,2 | 
[V:1] z8 | 
[V:2] z4z2f2 | 
[V:3] e4c4 | 
[V:4] A,2G,2A,3A, | 
[V:1] z2B2A2G2 | 
[V:2] e2d2e3e | 
[V:3] z8 | 
[V:4] A,2B,2C4 | 
[V:1] c3cB2A2 | 
[V:2] e2f2g3f | 
[V:3] z8 | 
[V:4] z4z2G,2 | 
[V:1] G3AB2c2- | 
[V:2] ede2d3c | 
[V:3] z8 | 
[V:4] C3CB,2A,2 | 
[V:1] c2B2c4 | 
[V:2] d4e4 | 
[V:3] z2B2A2G2 | 
[V:4] G,4z2C,2 | 
[V:1] z2c2f2f2 | 
[V:2] c4z4 | 
[V:3] A3AA2B2 | 
[V:4] F,2F,2D,2D,2 | 
[V:1] e3dc4 | 
[V:2] z4e3e | 
[V:3] c8 | 
[V:4] C,4z4 | 
[V:1] A3AG2B2 | 
[V:2] d2f2e2d2 | 
[V:3] z8 | 
[V:4] z8 | 
[V:1] A2G2F2c2 | 
[V:2] c4z4 | 
[V:3] e3ed2f2 | 
[V:4] z8 | 
[V:1] c2B2c4 | 
[V:2] z4e3f | 
[V:3] e2d2c4 | 
[V:4] z4A,3A, | 
[V:1] z8 | 
[V:2] g2f2f2e2 | 
[V:3] z2d2c2B2 | 
[V:4] G,2B,2A,2G,2 | 
[V:1] z8 | 
[V:2] f2g2e2d2 | 
[V:3] c4z4 | 
[V:4] F,2C2C2B,2 | 
[V:1] z4A3A | 
[V:2] g4z4 | 
[V:3] e3ed2f2 | 
[V:4] C4z4 | 
[V:1] G2B2A2G2 | 
[V:2] z4e3e | 
[V:3] e2d2c4 | 
[V:4] z8 | 
[V:1] F2c2c2B2 | 
[V:2] d2f2e2d2 | 
[V:3] z8 | 
[V:4] z8 | 
[V:1] c4z4 | 
[V:2] c4z2d2 | 
[V:3] e3fg2f2 | 
[V:4] A,3A,G,2B,2 | 
[V:1] z4z2c2 | 
[V:2] c2B2c4 | 
[V:3] f2e2f4 | 
[V:4] A,2G,2F,4- | 
[V:1] c3de2f2 | 
[V:2] a4g2a2 | 
[V:3] z2c2c4 | 
[V:4] F,4z2F,2 | 
[V:1] d4z2c2 | 
[V:2] fefga4 | 
[V:3] d4e4 | 
[V:4] B,4A,4 | 
[V:1] c3de2f2 | 
[V:2] z2a2g2a2 | 
[V:3] z2c2c4 | 
[V:4] F,4z2F,2 | 
[V:1] d4z2c2 | 
[V:2] fefga4- | 
[V:3] d4e2f2- | 
[V:4] B,4A,4 | 
[V:1] c3BA2G2- | 
[V:2] a2g2f2e2 | 
[V:3] f2edc4 | 
[V:4] F,6C,2 | 
[V:1] GFF4E2 | 
[V:2] d4c4- | 
[V:3] A2B2G4 | 
[V:4] D,2B,,2C,4 | 
[V:1] F8 |]  
[V:2] c8 |]  
[V:3] F8 |]  
[V:4] F,8 |]  



